T: Mary Ann MacDougall's March
M: 4/4
L: 1/8
K: Gmaj
|: dB |G>G G/G/G B2 A<G | c4 c2 dB | G>G G/G/G B2 A<G | A4 A2 dB |
G2 G/G/G B2 A<G | c>B c>d e>f g>e | d2 BG c2 AF | G4 G2 :|
|: ef |g2 fe d2 cB | c4 c>d e<f | g2 fe d2 cB | A4 A2 ef |
ga/g/ fe de/d/ cB | c2 cd e>f (3gfe | d2 B>G (3cBA FD | G4 G2 :|
